X: 41
T: 37. QUADRILLE
B: Sam Bayard, "Hill Country Tunes" 1944 #37
S: Played by Mrs. Sarah Armstrong, (near) Derry, PA, Nov 18, 1943.
R: jig
M: 6/8
L: 1/8
Z: 2010 John Chambers <jc:trillian.mit.edu>
K: A
e | a2e c2e | [aA]e[aA] [e2A2]c | BAB dcB | A2c cde |
[a2A2]e c2e | aea e3c | "a."BAB dcB | A3 A2 :: z |
E2E A2A | cAc e2c | BAB dcB | A2c cBc |
E2E A2A | cAc e2c | "a."BAB dcB |1 A3- A2 :|2 A3- A"D.C."ce |]
P: Var:
"a."B2B |] y6 y6 y6 y6 y6 y6 y6 y6

%%sep 2 1 500
%%sep 1 1 500

